X: 08011
T: BILL'S REEL
C: Bob McQuillen 9 May 90
B: Bob's Note Book 8 #11
%R: reel
Z: 2021 John Chambers <jc:trillian.mit.edu>
M: C
L: 1/8
K: D
FE \
| DFAF GBAG | FABA dAdf | edeg fdAf | gfed cAFE |
| DFAF GBAG | FABA dAdf | edeg fdAf | gecA d2 :|
|: fg \
| afdA FAde | fage fded | e=cAc GAcd | egag fdfg |
| afdA FAde | fage fded | e=cGc egag | fddc d2 :|
%%begintext align
%% This little ditty
%% is for Bill Christopherson, great fiddler with
%% the Lazy Aces String Band. From New York City, Bill
%% plays Southern style, and you really should hear him
%% play "WAKE UP FARMER". It'll wake _you_ up!
%%endtext

%%sep 1 1 500

%%sep 1 1 500

